X:11078
T:Mon pre avait un petit bois
R:Branle
A:Normandie
O:France
M:2/4
L:1/8
Q:1/4=80
K:E
G G/2G/2|BB GF|E2 G/2F/2G/2A/2|B/2c/2B/2A/2 GF|E2 ","Bc/2d/2|ee dc|B2 c/
2d/2e/2c/2|!
BB c/2d/2e/2c/2|B2 ","  G/2F/2G/2A/2|B/2c/2B/2A/2 G/2A/2G/2F/2|FE "," G/
2F/2G/2A/2|B/2c/2B/2A/2 GF|E2||
